assets/img/braze_icons/wallet-02.svg

<svg fill="none" height="24" viewBox="0 0 24 24" width="24" xmlns="http://www.w3.org/2000/svg"><path clip-rule="evenodd" d="m1.99999 14.9998.00001.0056v2.8332c-.00002.5271-.00003.9819.03057 1.3564.0323.3954.10362.7886.29641 1.167.28762.5645.74656 1.0234 1.31105 1.311.37838.1928.7716.2641 1.16694.2964.37456.0306.82934.0306 1.35647.0306h11.67716c.5271 0 .9819 0 1.3564-.0306.3954-.0323.7886-.1036 1.167-.2964.5645-.2876 1.0234-.7465 1.311-1.311.1928-.3784.2641-.7716.2964-1.167.0306-.3745.0306-.8293.0306-1.3564v-6.6772c0-.5271 0-.9819-.0306-1.35642-.0323-.39535-.1036-.78857-.2964-1.16695-.2876-.56448-.7465-1.02343-1.311-1.31105-.3784-.19279-.7716-.26411-1.167-.29641-.3745-.0306-.8293-.03059-1.3565-.03057h-.8385v-2.54016c0-.38086 0-.73202-.0261-1.01798-.027-.29635-.0914-.67021-.3243-1.01005-.3062-.44658-.7803-.74995-1.3141-.84078-.4062-.06912-.7726.02913-1.053.12875-.2706.09613-.5894.24331-.9352.40295l-9.02432 4.16493c-.5568.25607-1.04628.48118-1.41984.84626-.32707.31965-.57673.70985-.7299 1.14077-.17494.49216-.1742 1.03092-.17337 1.64379zm12.95201-11.39542c-.1738.06174-.4083.16888-.8035.35128l-6.59604 3.04434h7.44754v-2.49957c0-.43525-.001-.69306-.0178-.87673l-.0028-.02879zm1.548 9.39562c-.8284 0-1.5.6716-1.5 1.5s.6716 1.5 1.5 1.5 1.5-.6716 1.5-1.5-.6716-1.5-1.5-1.5z" fill="#801ed7" fill-rule="evenodd"/></svg>

<svg width="24" height="24" viewBox="0 0 24 24" fill="none" xmlns="http://www.w3.org/2000/svg">
<path fill-rule="evenodd" clip-rule="evenodd" d="M1.99999 14.9998L2 15.0054V17.8386C1.99998 18.3657 1.99997 18.8205 2.03057 19.195C2.06287 19.5904 2.13419 19.9836 2.32698 20.362C2.6146 20.9265 3.07354 21.3854 3.63803 21.673C4.01641 21.8658 4.40963 21.9371 4.80497 21.9694C5.17953 22 5.63431 22 6.16144 22L17.8386 22C18.3657 22 18.8205 22 19.195 21.9694C19.5904 21.9371 19.9836 21.8658 20.362 21.673C20.9265 21.3854 21.3854 20.9265 21.673 20.362C21.8658 19.9836 21.9371 19.5904 21.9694 19.195C22 18.8205 22 18.3657 22 17.8386V11.1614C22 10.6343 22 10.1795 21.9694 9.80498C21.9371 9.40963 21.8658 9.01641 21.673 8.63803C21.3854 8.07355 20.9265 7.6146 20.362 7.32698C19.9836 7.13419 19.5904 7.06287 19.195 7.03057C18.8205 6.99997 18.3657 6.99998 17.8385 7H17L17 4.45984C17 4.07898 17 3.72782 16.9739 3.44186C16.9469 3.14551 16.8825 2.77165 16.6496 2.43181C16.3434 1.98523 15.8693 1.68186 15.3355 1.59103C14.9293 1.52191 14.5629 1.62016 14.2825 1.71978C14.0119 1.81591 13.6931 1.96309 13.3473 2.12273L4.32298 6.28766C3.76618 6.54373 3.2767 6.76884 2.90314 7.13392C2.57607 7.45357 2.32641 7.84377 2.17324 8.27469C1.9983 8.76685 1.99904 9.30561 1.99987 9.91848L1.99999 14.9998ZM14.952 3.60438C14.7782 3.66612 14.5437 3.77326 14.1485 3.95566L7.55246 7L15 7V4.50043C15 4.06518 14.999 3.80737 14.9822 3.6237L14.9794 3.59491L14.952 3.60438ZM16.5 13C15.6716 13 15 13.6716 15 14.5C15 15.3284 15.6716 16 16.5 16C17.3284 16 18 15.3284 18 14.5C18 13.6716 17.3284 13 16.5 13Z" fill="#801ED7"/>
</svg>
